X:1
T:Fantasie Impromptu.
T:Fantasie-Impromptu.
T:Fr. Chopin. 
T:(Ouvre posthume.Vers 1834.)(Op.66.) (Pubulé  par  J . Fontana)
C:Fr-Chopin. Op.66.
%%score { ( 1 5 6 ) | ( 2 3 4 ) }
L:1/8
Q:1/2=84
M:2/2
K:E
V:1 treble nm="Piano" snm="Pno."
V:5 treble 
V:6 treble 
V:2 bass 
V:3 bass 
V:4 bass 
V:1
"^Allegro agitato.( = 84.)" z8 | z8 |[Q:1/2=50]!f! z8[Q:1/2=60][Q:1/2=72][Q:1/2=80] | %3
[Q:1/2=84] z8 |!p![Q:1/2=84] z/ (G/A/G/!<(! ^^F/G/c/e/!<)!!>(! d/c/d/c/ ^B/c/e/!>)!g/) | %5
!p! z/ (G/A/G/!<(! ^^F/G/c/e/!<)! d/c/d/c/ ^B/c/e/g/) | %6
!mp! z/!<(! (A/c/d/ f/a/c'/d'/ b'/a'/g'/f'/ e'/d'/f'/!<)!c'/) | %7
!mf! (^b/!>(!d'/a/g/ f/a/e/d/) (f/c/^B/d/ A/G/=B/!>)!A/-) | %8
!p! A/(G/A/G/ ^^F/G/c/e/ d/c/d/c/ ^B/c/e/g/) | %9
!p!"_cresc." z/ (G/A/G/ ^^F/G/c/e/ d/c/d/c/ ^B/c/e/g/) | %10
!<(! (d/e/d/^^c/ d/b/^a/g/ ^^f/)!<)!!mf!(e'/!>(!d'/^c'/ b/a/g/f/)!>)! | %11
[Q:1/2=82]"_dim." (!>!^a/g/b/^^c/)[Q:1/2=80] (!>!e/d/g/^A/)[Q:1/2=78] (!>!^c/B/d/^^F/)[Q:1/2=76] (!>!A/G/F/!mf!G/) | %12
[Q:1/2=72]!f! ((G/g/^B/c/)[Q:1/2=76] (F/f/B/c/)[Q:1/2=78] (^E/^e/B/c/)[Q:1/2=80] (F/f/B/c/) | %13
 (C/c/F/A/) (D/d/F/A/) (E/)e/G/B/) (G/g/B/e/) | %14
 ((G/g/^B/c/) (F/f/B/c/)!<(! (^E/^e/B/c/) (F/f/B/c/) | %15
[Q:1/2=78] (^E/^e/=B/d/)[Q:1/2=76] (F/f/B/d/)[Q:1/2=70] (A/!<)!a/B/=e/)!f![Q:1/2=64] (G/)g/B/e/) | %16
[Q:1/2=80]!p! x/ (!>!g2 !>!f2 !>!^e2 !>!f3/2 |"_cresc." x/ !>!c2 !>!d2 !>!e2) !>!g3/2 | %18
[Q:1/2=78] x/ !>!g2[Q:1/2=76] !>!f2[Q:1/2=70] !>!d'2[Q:1/2=64] !>!c'3/2 | %19
[Q:1/2=80] x/!>(! !>!c'2!>)!!mf!"_dim." !>!^b2 !>!b2 !>!b3/2 | %20
 x/!>(! =c'2!>)! b2!>(! b2!>)! ^a3/2 | x/!>(! ^a2 =a2 a2 a3/2!>)! |!pp! =c2 B x B2 ^A x | %23
 ^A2[Q:1/2=76]!mf! =A4[Q:1/2=72][Q:1/2=68] G2[Q:1/2=64][Q:1/2=60] | %24
[Q:1/2=84]!p!"^a tempo" z/ (G/A/G/!<(! ^^F/G/c/e/!<)!!>(! d/c/d/c/ ^B/c/e/!>)!g/) | %25
!p! z/ (G/A/G/!<(! ^^F/G/c/e/!<)! d/c/d/c/ ^B/c/e/g/) | %26
!mp! z/!<(! (A/c/d/ f/a/c'/d'/ b'/a'/g'/f'/ e'/d'/f'/!<)!c'/) | %27
!mf! (^b/!>(!d'/a/g/ f/a/e/d/) (f/c/^B/d/ A/G/=B/!>)!A/-) | %28
!p!"_cresc." A/(G/A/!<(!G/ ^^F/G/c/!<)!e/!mp! !>!d/c/d/c/ ^B/c/e/g/) | %29
 (!>!e/d/e/d/ ^^c/d/f/a/) (!>!f/^e/f/e/ ^^d/e/g/^c'/) | %30
!mf!"_cresc." z/ (c/=d/!<(!c/ ^B/c/f/!<)!a/!mf! !>!f/^e/f/e/ ^^d/e/g/c'/) | %31
 (!>!g/f/g/f/ ^e/f/a/c'/) (!>!a/g/a/g/ ^^f/g/^b/d'/) | %32
 (g/a/g/^^f/ .g/)(!>!e'/d'/^^c'/ ^c'/^b/=b/^a/ =a/g/^^f/^f/) | %33
!mf!!<(! (e/f/e/d/ .e/)(!>!e'/d'/^^c'/ ^c'/^b/=b/^a/ =a/g/^^f/^f/)!<)! | %34
!f![Q:1/2=70] g[Q:1/2=80] (!>!g'/^^f'/ .^f'/^e'/=e'/d'/ ^^c'/^c'/^b/=b/ ^a/=a/g/^^f/ | %35
!<(! f/^e/=e/d/ .^^c/^c/=c/B/ ^A/=A/G/^^F/ ^F/=E/D/C/!<)! | %36
[Q:1/2=60] .G,) z!ff![Q:1/2=66]!8va(! (!>!a'/g'/.e''/e'/)[Q:1/2=72] (!>!f'/e'/.c''/c'/) (!>!d'/c'/.g'/g/)!8va)! | %37
[Q:1/2=74] (!>!a/g/.e'/e/) (!>!f/e/.c'/c/)[Q:1/2=76] (!>!d/c/.g/G/)[Q:1/2=78] !>!A/G/.e/E/ | %38
[Q:1/2=80] (!>!F/E/.c/"^dim."C/)[Q:1/2=76] (D/C/.G/G,/)[Q:1/2=74] (D/C/.G/G,/)[Q:1/2=72] (D/C/.A/A,/) | %39
[Q:1/2=70] (D/C/.G/G,/)[Q:1/2=68] (D/C/.^^F/^^F,/)[Q:1/2=60] (D/C/[Q:1/2=50].G/G,/)[Q:1/2=40] (D/C/[Q:1/2=30].G/[Q:1/2=20]!breath!G,/) || %40
[K:Db][M:4/4][Q:1/4=60]"^Largo." z8[Q:1/4=70][Q:1/4=74][Q:1/4=76] | %41
[Q:1/4=80]"_dim." z8[Q:1/4=82][Q:1/4=84][Q:1/4=86] || %42
[M:4/4][Q:1/4=88]"^Moderato cantabile." (A4 PB!<(!Ade | f4)!<)!!mp! (!>!a4 | %44
!>(! !tenuto!g2 !tenuto!f2 !tenuto!e2[Q:1/4=84] !>!f>[Q:1/4=80]d!>)! | %45
[Q:1/4=88] A4)!>(! !>!B4-!>)! |!p!!<(! (B4 P_cBef)!<)! |"_cresc." (g2 f2 e2 f2) | %48
!mp!"_dim." (d3[Q:1/4=72] c/4d/4e/4d/4[Q:1/4=88] f3 e)[Q:1/4=80] | %49
"^ten."[Q:1/4=88] e8[Q:1/4=86][Q:1/4=84] |!p!"_dolce"[Q:1/4=88]"^a tempo" (A4 PB!<(!Ade | %51
 f4)!<)!!mp! (!>!a4 | %52
!>(! !tenuto!g2 !tenuto!f2[Q:1/4=84] (6:4:5!tenuto!ef/e/d/e/[Q:1/4=82] !>!f>[Q:1/4=80]d!>)! | %53
[Q:1/4=88] A4)!>(! !>!B4-!>)! |!p!!<(! (B4 P_cBef)!<)! | (g2 f2 e2 (f2 | %56
!mp!"_dim." d3))[Q:1/4=72] (=G/4A/4B/4A/4[Q:1/4=88] f3 e)[Q:1/4=80] | %57
[Q:1/4=86]!>(! (e4[Q:1/4=84] d2)!>)!!p![Q:1/4=88] z (!>!a |!<(! (A4) PB>=AB>c)!<)! | %59
!f![Q:1/4=84] _A z!>(! (!>!c'2-[Q:1/4=80] (7:4:7c'!tenuto!b!tenuto!a!tenuto!_f!tenuto!d[Q:1/4=60]!tenuto!B3/2[Q:1/4=80]a/!>)! | %60
[Q:1/4=88]"_dim." (!>!E4){/c} B>=AB>e | _A2) z2[Q:1/4=78]!pp!"^poco rit." ((B2[Q:1/4=74] (3dc).B) | %62
!p!"^a tempo"[Q:1/4=88] (A4 PBAde | f4)!mp! (!>!a4 | %64
[Q:1/4=86]!>(! !tenuto!g2 !tenuto!f2[Q:1/4=85] (6:4:5!tenuto!ef/e/d/e/[Q:1/4=84] !>!f>[Q:1/4=80]d!>)! | %65
[Q:1/4=88] A4)!>(! !>!B4-!>)! |!p!!<(! (B4 P_cBef)!<)! | (g2 f2 e2 (f2 | %68
!mp!"_dim." d3))[Q:1/4=72] (=G/4A/4B/4A/4[Q:1/4=88] f3 e)[Q:1/4=80] | %69
[Q:1/4=84]!>(! (e4[Q:1/4=80] d2)!>)!!p! z[Q:1/4=88] !>!a |!<(! (A4 PB>=AB>c)!<)! | %71
!f![Q:1/4=84] _A z[Q:1/4=80]!>(! (!>!c''2- (6:4:15c''/b'/a'/_f'/e'/d'/(3=a/c'/b/(3_a/_f/d/[Q:1/4=45].B/)z/4(a/4!>)! | %72
[Q:1/4=88]"_dim." (!>!E4){/c} B>=AB>e | _A2) z2!pp!"^poco rit."[Q:1/4=76] ((B2[Q:1/4=70] (3dc).B) | %74
!p!"^a tempo"[Q:1/4=88] (A4 PBAde | f4)!mp! (!>!a4 | %76
[Q:1/4=87]!>(! !tenuto!g2[Q:1/4=86] !tenuto!f2[Q:1/4=85] (6:4:5!tenuto!ef/e/d/e/[Q:1/4=84] !>!f>[Q:1/4=80]d!>)! | %77
[Q:1/4=88] A4)!>(! !>!B4-!>)! |!p!!<(! (B4 P_cBef)!<)! | (g2 f2 e2 (f2 | %80
!mp!"_dim." d3))[Q:1/4=68] (=G/4A/4B/4A/4[Q:1/4=80] f3 e)[Q:1/4=76] | %81
!p![Q:1/4=80]"^dim." e8[Q:1/4=74][Q:1/4=66][Q:1/4=58][Q:1/4=40] || %82
[K:E]!p!"^Presto."[Q:1/2=88] z/ (G/A/"^poco più mosso del primo tempo"G/!<(! ^^F/G/c/e/!<)!!>(! d/c/d/c/ ^B/c/e/!>)!g/) | %83
!p! z/ (G/A/G/!<(! ^^F/G/c/e/!<)! d/c/d/c/ ^B/c/e/g/) | %84
!mp! z/!<(! (A/c/d/ f/a/c'/d'/ b'/a'/g'/f'/ e'/d'/f'/!<)!c'/) | %85
!mf! (^b/!>(!d'/a/g/ f/a/e/d/) (f/c/^B/d/ A/G/=B/!>)!A/-) | %86
!p! A/(G/A/G/ ^^F/G/c/e/ d/c/d/c/ ^B/c/e/g/) | %87
!p!"_cresc." z/ (G/A/G/ ^^F/G/c/e/ d/c/d/c/ ^B/c/e/g/) | %88
!<(! (d/e/d/^^c/ d/b/^a/g/ ^^f/)!<)!!mf!(e'/!>(!d'/^c'/ b/a/g/f/)!>)! | %89
[Q:1/2=84]"_dim." (!>!^a/g/b/^^c/)[Q:1/2=80] (!>!e/d/g/^A/)[Q:1/2=76] (!>!^c/B/d/^^F/)[Q:1/2=72] (!>!A/G/F/!mf!G/) | %90
!f![Q:1/2=68] ((G/g/[Q:1/2=80]^B/c/) (F/f/B/c/) (^E/^e/B/c/) (F/f/B/c/) | %91
 (C/c/F/A/) (D/d/F/A/) (E/)e/G/B/) (G/g/B/e/) | %92
 ((G/g/^B/c/) (F/f/B/c/)!<(! (^E/^e/B/c/) (F/f/B/c/) | %93
[Q:1/2=78] (^E/^e/=B/d/)[Q:1/2=76] (F/f/B/d/)[Q:1/2=68] (A/!<)!a/B/=e/)!f! (G/)g/B/e/) | %94
[Q:1/2=60]!p! x/[Q:1/2=80] (!>!g2 !>!f2 !>!^e2 !>!f3/2 |"_cresc." x/ !>!c2 !>!d2 !>!e2) !>!g3/2 | %96
[Q:1/2=72] x/ !>!g2 !>!f2[Q:1/2=66] !>!d'2 !>!c'3/2 | %97
[Q:1/2=60] x/!>(! !>!c'2[Q:1/2=80]!>)!!mf! !>!^b2 !>!b2 !>!b3/2 | %98
 x/!>(! =c'2!>)! b2!>(! b2!>)! ^a3/2 | x/!>(! ^a2 =a2 a2 a3/2!>)! |!pp! =c2 B x B2 ^A x | %101
 ^A2[Q:1/2=76]!mf! =A4[Q:1/2=72][Q:1/2=68] G2 | %102
!p!"^a tempo"[Q:1/2=60] z/[Q:1/2=88] (G/A/G/!<(! ^^F/G/c/e/!<)!!>(! d/c/d/c/ ^B/c/e/!>)!g/) | %103
!p! z/ (G/A/G/!<(! ^^F/G/c/e/!<)! d/c/d/c/ ^B/c/e/g/) | %104
!mp! z/!<(! (A/c/d/ f/a/c'/d'/ b'/a'/g'/f'/ e'/d'/f'/!<)!c'/) | %105
!mf! (^b/!>(!d'/a/g/ f/a/e/d/) (f/c/^B/d/ A/G/=B/!>)!A/-) | %106
!p!"_cresc." A/(G/A/!<(!G/ ^^F/G/c/!<)!e/!mp! !>!d/c/d/c/ ^B/c/e/g/) | %107
 (!>!e/d/e/d/ ^^c/d/f/a/) (!>!f/^e/f/e/ ^^d/e/g/^c'/) | %108
!mf!"_cresc." z/ (c/=d/!<(!c/ ^B/c/f/!<)!a/!mf! !>!f/^e/f/e/ ^^d/e/g/c'/) | %109
 (!>!g/f/g/f/ ^e/f/a/c'/) (!>!a/g/a/g/ ^^f/g/^b/d'/) | %110
 (g/a/g/^^f/ .g/)(!>!e'/d'/^^c'/ ^c'/^b/=b/^a/ =a/g/^^f/^f/) | %111
!mf!!<(! (e/f/e/d/ .e/)(!>!e'/d'/^^c'/ ^c'/^b/=b/^a/ =a/g/^^f/^f/)!<)! | %112
!f![Q:1/2=74] g[Q:1/2=88] (!>!g'/^^f'/ .^f'/^e'/=e'/d'/ ^^c'/^c'/^b/=b/ ^a/=a/g/^^f/ | %113
!<(! f/^e/=e/d/ .^^c/^c/=c/B/ ^A/=A/G/^^F/ ^F/=E/D/C/!<)! | %114
[Q:1/2=60] .G,) z!ff![Q:1/2=64]!8va(! (!>!a'/g'/.e''/e'/)[Q:1/2=68] (!>!f'/e'/.c''/c'/)[Q:1/2=74] (!>!d'/c'/.g'/g/)!8va)! | %115
[Q:1/2=78] (!>!a/g/.e'/e/)[Q:1/2=80] (!>!f/e/.c'/c/)[Q:1/2=82] (!>!d/c/.g/G/)[Q:1/2=84] !>!A/G/.e/E/ | %116
 (!>!F/E/.c/C/) (D/C/.G/G,/) (D/C/!<(!.G/G,/) (D/C/.A/A,/) | %117
 (D/C/.G/G,/) (D/C/.^^F/^^F,/)!<)![Q:1/2=80] (D/C/.G/G,/)[Q:1/2=76] (D/C/.G/G,/) | %118
!ff!"^molto agitato"[Q:1/2=88] (D/C/G/G,/) x (!>!e2 !>!e2 !>!d) | %119
 z!>(! (!>!d2 !>!c2)!>)! (!>!G2 !>!G | x G2) (!>!e2 !>!e2 !>!d) | %121
 z!>(! (!>!d2 !>!c2)!>)! (!>!G2 !>!G | x G2) (!>!e2 !>!c2 !>!e | x G2)!>(! (!>!e2 !>!c2 !>!e)!>)! | %124
!mp!"_dim." z !>!c ((!>!A/G/c/C/) (!>!F/E/c/C/)) ((!>!A/G/c/C/) | %125
[Q:1/2=84] (!>!F/E/c/C/)) ((A/G/c/C/)[Q:1/2=80] (F/E/c/C/) (A/G/c/C/)) | %126
"^legatissimo" (D/C/G/G,/ D/C/G/G,/ D/C/G/G,/ D/C/G/G,/ | %127
 D/C/G/G,/ D/C/G/G,/ D/C/G/G,/ D/C/G/G,/) | %128
!pp!"^poco a poco più tranquillo" (D/C/G/G,/ D/C/G/G,/ D/C/G/G,/ D/C/G/G,/) | %129
 (D/C/G/G,/ D/C/G/G,/ D/C/!<(!G/G,/ D/C/G/G,/) | %130
 (D/"_cresc."C/G/G,/ D/!<)!C/G/G,/ D/C/G/G,/ D/C/G/G,/) | %131
!p! (D/C/"_dim."G/G,/ D/C/G/G,/ D/C/G/G,/ D/C/G/G,/) | %132
!p! (D/C/G/G,/ D/C/G/G,/ D/C/G/G,/ D/C/G/G,/) | (D/C/G/G,/ D/C/G/G,/ D/C/G/G,/ D/C/G/G,/) | %134
[Q:1/2=80] (D/C/"^rit."G/^E,/[Q:1/2=76] D/C/G/E,/[Q:1/2=72] D/C/G/E,/[Q:1/2=68] D/C/G/E,/) | %135
[Q:1/2=64] (^E/D/G/F,/[Q:1/2=58] E/D/G/F,/[Q:1/2=50] E/D/G/F,/[Q:1/2=40] E/D/[Q:1/2=30]G/[Q:1/2=20]F,/) | %136
[Q:1/4=80]"^lento" (!arpeggio![F,G,-^B,D]8[Q:1/4=100][Q:1/4=95][Q:1/4=90][Q:1/4=26] | %137
[Q:1/4=76] !arpeggio![^E,G,C]8)[Q:1/4=64][Q:1/4=58][Q:1/4=16] |] %138
V:2
!ped! !^!G,8- | G,8!ped-up! |!ped! (6:4:6!arpeggio![C,,C,] (G,CECG,"^dim." (6:4:6C,G,!>(!CECG, | %3
 (6:4:6C,G,CECG, (6:4:6C,G,CECG,)!ped-up!!>)! |!ped! (6:4:6(C,G,CECG,) (6:4:6(E,G,!ped-up!CECG,) | %5
!ped! (6:4:6(C,G,CECG,) (6:4:6(E,G,!ped-up!CECG,) | %6
!ped! (6:4:6(D,A,CFCA,)!ped-up!!ped! (6:4:6(F,CDADC)!ped-up! | %7
!ped! (6:4:6(G,,D,F,^B,F,D,) (6:4:6(G,,D,F,B,!ped-up!F,D,) | %8
!ped! (6:4:6(C,G,CECG,) (6:4:6(E,G,!ped-up!CECG,) | %9
!ped! (6:4:6(C,G,^A,EA,G,) (6:4:6(E,G,!ped-up!A,CA,G,) | %10
!ped! (6:4:6(D,G,B,D!ped-up!B,G,)!ped! (6:4:6(D,^A,C^^F!ped-up!CA,) | %11
!ped! (6:4:6(G,,D,G,B,G,D,) (6:4:6(G,,D,G,B,!ped-up!G,D,) | %12
!ped! (6:4:6(.A,,C,F,A,F,C,)!ped-up!!ped! (6:4:6(A,,C,F,A,F,C,)!ped-up! | %13
!ped! (6:4:6(.B,,F,A,B,A,!ped-up!F,)!ped! (6:4:6(E,,B,,E,G,E,B,,)!ped-up! | %14
!ped! (6:4:6(.A,,C,F,A,F,!ped-up!C,)!ped! (6:4:6(A,,C,F,A,F,!ped-up!C,) | %15
!ped! (6:4:6(.B,,D,A,B,A,!ped-up!D,)!ped! (6:4:6(E,,B,,E,G,E,!ped-up!B,,) | %16
!ped! (6:4:6(A,,C,F,A,F,C,) (6:4:6(A,,C,F,A,F,C,)!ped-up! | %17
!ped! (6:4:6(B,,F,A,B,A,F,)!ped-up!!ped! (6:4:6(E,,B,,E,G,E,B,,)!ped-up! | %18
!ped! (6:4:6(.A,,C,F,A,F,C,)!ped-up!!ped! (6:4:6(A,,D,F,A,F,D,)!ped-up! | %19
!ped! (6:4:6(.G,,D,F,^B,F,D, (6:4:6G,,D,F,B,F,D,)!ped-up! | %20
!ped! (6:4:6(A,,D,F,=B,F,D,)!ped-up!!ped! (6:4:6(^A,,D,F,^A,F,D,)!ped-up! | %21
!ped! (6:4:6(^B,,D,F,=A,F,D,!ped-up!!ped! (6:4:6=B,,D,F,A,F,D,)!ped-up! | %22
!ped! (6:4:6(A,,D,F,=B,F,D,)!ped-up!!ped! (6:4:6(^A,,D,F,^A,F,D,)!ped-up! | %23
!ped! (6:4:6(=B,,D,F,=A,F,D,!ped-up!!ped! (6:4:6^B,,D,F,G,F,D,)!ped-up! | %24
!ped! (6:4:6(C,G,CECG,) (6:4:6(E,G,!ped-up!CECG,) | %25
!ped! (6:4:6(C,G,CECG,) (6:4:6(E,G,!ped-up!CECG,) | %26
!ped! (6:4:6(D,A,CFCA,)!ped-up!!ped! (6:4:6(F,CDADC)!ped-up! | %27
!ped! (6:4:6(G,,D,F,^B,F,D,) (6:4:6(G,,D,F,B,!ped-up!F,D,) | %28
!ped! (6:4:6(C,G,CECG,) (6:4:6(E,G,!ped-up!CECG,) | %29
!ped! (6:4:6(.F,CDADC)!ped-up!!ped! (6:4:6(.G,C^EBEC)!ped-up! | %30
!ped! (6:4:6(A,CFAFC)!ped-up!!ped! (6:4:6(.G,C^EBEC)!ped-up! | %31
!ped! (6:4:6(A,CFA!ped-up!FC)!ped! (6:4:6(^B,,F,G,D!ped-up!G,F,) | %32
!ped! (6:4:6(C,G,CE!ped-up!CG,)!ped! (6:4:6(D,G,^B,F!ped-up!B,G,) | %33
!ped! (6:4:6(E,G,CE!ped-up!CG,)!ped! (6:4:6(F,CDA!ped-up!DC) | %34
!ped! [G,CEG] z!ped-up! z2!ped! !arpeggio![^^F,CEA] x z2 | %35
 z8!ped-up!!ped!!ped-up!!ped!!ped-up!!ped! | %36
!ped! .[G,,,G,,] z[K:treble] .[Ee]2 .[Cc]2 .[G,G]2!ped-up! | %37
[K:bass] .[E,E]2 .[C,C]2 .[G,,G,]2 .[E,,E,]2 | %38
 .[C,,C,]2!ped-up!!ped! !>![G,,,G,,]2 !>![G,,,G,,]2!ped-up!!ped! !>![A,,,A,,]2 | %39
!ped! !>![G,,,G,,]2!ped-up!!ped! !>![^^F,,,^^F,,]2!ped-up!!ped! !^![G,,,G,,]4!ped-up! || %40
[K:Db][M:4/4]!ped!{/D,,,} (6:4:6(D,,A,,D,F,A,D (6:4:6FDA,F,D,A,,)!ped-up! | %41
"^poco accel." (6:4:6(D,,A,,D,F,A,D (6:4:6FDA,F,D,A,,-) || %42
[M:4/4]!ped! (6:4:6[D,,A,,](A,CECA, (6:4:6D,A,CGCA,)!ped-up! |!ped! x6 (!>!A2!ped-up! | %44
!ped! !>!G2!ped-up!!ped! !>!F2!ped-up!!ped! !>!E2!ped-up!!ped! !>!D2)!ped-up! | %45
!ped! (6:4:6(A,,E,A,CA,E,)!ped-up!!ped! (6:4:6.G,,(G,B,DB,G,)!ped-up! | %46
!ped! (6:4:6(B,,F,B,=DB,F,)!ped-up!!ped! (6:4:6.B,,(B,DADB,)!ped-up! | %47
!ped! E,2!ped-up!!ped! F,2!ped-up!!ped! _G,2!ped-up!!ped! _A,2!ped-up! | %48
!ped! (6:4:6(D,A,DFDA,)!ped-up!!ped! (6:4:6(E,=G,DEDG,)!ped-up! | %49
!p!!ped!!<(! x6!<)!!ped! !>!B,2!ped-up! | %50
!ped! (6:4:6(A,,E,A,CA,E,)!ped-up!!ped! (6:4:6.A,,(A,CGCA,)!ped-up! |!ped! x6 (!>!A2!ped-up! | %52
!ped! !>!G2!ped-up!!ped! !>!F2!ped-up!!ped! !>!E2!ped-up!!ped! !>!D2)!ped-up! | %53
!ped! (6:4:6(A,,E,A,CA,E,)!ped-up!!ped! (6:4:6.G,,(G,B,DB,G,)!ped-up! | %54
!ped! (6:4:6(B,,F,B,=DB,F,)!ped-up!!ped! (6:4:6.B,,(B,DADB,)!ped-up! | %55
!ped! E,2!ped-up!!ped! F,2!ped-up!!ped! _G,2!ped-up!!ped! _A,2!ped-up! | %56
!ped! (6:4:6(D,A,DFDA,)!ped-up!!ped! (6:4:6(D,A,CGCA,)!ped-up! | %57
!ped! (6:4:6(D,A,CGCA,!ped-up!!ped! (6:4:6D,A,DFDA,)!ped-up! | %58
!ped! (6:4:6(A,,E,A,CA,E,)!ped-up!!ped! (6:4:6(A,,E,=G,DG,E,)!ped-up! | %59
!ped! (6:4:6(A,,E,A,CA,E,)!ped-up!!ped! (6:4:6(D,A,D_FDA,)!ped-up! | %60
!ped! (6:4:6.E,,(E,A,!>(!CA,E,)!ped-up!!ped! (6:4:6.E,,(E,=G,DG,E,)!ped-up! | %61
!ped! (6:4:6(A,,E,A,!>)!CA,E,)!ped-up!!ped! (6:4:6._G,,(_G,B,DB,G,-)!ped-up! | %62
!ped! (6:4:6.A,,(A,CECA,)!ped-up!!ped! (6:4:6(E,A,CGCA,)!ped-up! |!ped! x6 (!>!A2!ped-up! | %64
!ped! !>!G2!ped-up!!ped! !>!F2!ped-up!!ped! !>!E2!ped-up!!ped! !>!D2)!ped-up! | %65
!ped! (6:4:6(A,,E,A,CA,E,)!ped-up!!ped! (6:4:6.G,,(G,B,DB,G,)!ped-up! | %66
!ped! (6:4:6(B,,F,B,=DB,F,)!ped-up!!ped! (6:4:6.B,,(B,DADB,)!ped-up! | %67
!ped! E,2!ped-up!!ped! F,2!ped-up!!ped! G,2!ped-up!!ped! _A,2!ped-up! | %68
!ped! (6:4:6(D,A,DFDA,)!ped-up!!ped! (6:4:6(D,A,CGCA,)!ped-up! | %69
!ped! (6:4:6(D,A,CGCA,!ped-up!!ped! (6:4:6D,A,DFDA,)!ped-up! | %70
!ped! (6:4:6(A,,E,A,CA,E,)!ped-up!!ped! (6:4:6(A,,E,=G,DG,E,)!ped-up! | %71
!ped! (6:4:6(A,,E,A,CA,E,)!ped-up!!ped! (6:4:6(D,A,D_FDA,)!ped-up! | %72
!ped! (6:4:6.E,,(E,A,CA,E,)!ped-up!!ped! (6:4:6.E,,(E,=G,DG,E,)!ped-up! | %73
!ped! (6:4:6(A,,E,A,CA,E,)!ped-up!!ped! (6:4:6._G,,(_G,B,DB,G,-)!ped-up! | %74
!ped! (6:4:6(A,,E,A,CA,E,)!ped-up!!ped! (6:4:6(A,,A,CGCA,)!ped-up! |!ped! x6 (!>!A2!ped-up! | %76
!ped! !>!G2!ped-up!!ped! !>!F2!ped-up!!ped! !>!E2!ped-up!!ped! !>!D2)!ped-up! | %77
!ped! (6:4:6(A,,E,A,CA,E,)!ped-up!!ped! (6:4:6.G,,(G,B,DB,G,)!ped-up! | %78
!ped! (6:4:6(B,,F,B,=DB,F,)!ped-up!!ped! (6:4:6.B,,(B,DADB,)!ped-up! | %79
!ped! E,2!ped-up!!ped! F,2!ped-up!!ped! G,2!ped-up!!ped! _A,2!ped-up! | %80
!ped! (6:4:6(D,A,DFDA,)!ped-up!!ped! (6:4:6(D,A,CGCA,)!ped-up! | %81
!ped! (6:4:6(D,A,C!>(!GCA,) (6:4:6(D,A,CGCA,)!ped-up!!>)! || %82
[K:E]!ped! (6:4:6(C,G,CECG,) (6:4:6(E,G,!ped-up!CECG,) | %83
!ped! (6:4:6(C,G,CECG,) (6:4:6(E,G,!ped-up!CECG,) | %84
!ped! (6:4:6(D,A,CFCA,)!ped-up!!ped! (6:4:6(F,CDADC)!ped-up! | %85
!ped! (6:4:6(G,,D,F,^B,F,D,) (6:4:6(G,,D,F,B,!ped-up!F,D,) | %86
!ped! (6:4:6(C,G,CECG,) (6:4:6(E,G,!ped-up!CECG,) | %87
!ped! (6:4:6(C,G,^A,EA,G,) (6:4:6(E,G,!ped-up!A,CA,G,) | %88
!ped! (6:4:6(D,G,B,D!ped-up!B,G,)!ped! (6:4:6(D,^A,C^^F!ped-up!CA,) | %89
!ped! (6:4:6(G,,D,G,B,G,D,) (6:4:6(G,,D,G,B,!ped-up!G,D,) | %90
!ped! (6:4:6(.A,,C,F,A,F,C,)!ped-up!!ped! (6:4:6(A,,C,F,A,F,C,)!ped-up! | %91
!ped! (6:4:6(.B,,F,A,B,A,!ped-up!F,)!ped! (6:4:6(E,,B,,E,G,E,B,,)!ped-up! | %92
!ped! (6:4:6(.A,,C,F,A,F,!ped-up!C,)!ped! (6:4:6(A,,C,F,A,F,!ped-up!C,) | %93
!ped! (6:4:6(.B,,D,A,B,A,!ped-up!D,)!ped! (6:4:6(E,,B,,E,G,E,!ped-up!B,,) | %94
!ped! (6:4:6(A,,C,F,A,F,C,) (6:4:6(A,,C,F,A,F,C,)!ped-up! | %95
!ped! (6:4:6(B,,F,A,B,A,F,)!ped-up!!ped! (6:4:6(E,,B,,E,G,E,B,,)!ped-up! | %96
!ped! (6:4:6(.A,,C,F,A,F,C,)!ped-up!!ped! (6:4:6(A,,D,F,A,F,D,)!ped-up! | %97
!ped! (6:4:6(.G,,D,F,^B,F,D, (6:4:6G,,D,F,B,F,D,)!ped-up! | %98
!ped! (6:4:6(A,,D,F,=B,F,D,)!ped-up!!ped! (6:4:6(^A,,D,F,^A,F,D,)!ped-up! | %99
!ped! (6:4:6(^B,,D,F,=A,F,D,!ped-up!!ped! (6:4:6=B,,D,F,A,F,D,)!ped-up! | %100
!ped! (6:4:6(A,,D,F,=B,F,D,)!ped-up!!ped! (6:4:6(^A,,D,F,^A,F,D,)!ped-up! | %101
!ped! (6:4:6(=B,,D,F,=A,F,D,!ped-up!!ped! (6:4:6^B,,D,F,G,F,D,)!ped-up! | %102
!ped! (6:4:6(C,G,CECG,) (6:4:6(E,G,!ped-up!CECG,) | %103
!ped! (6:4:6(C,G,CECG,) (6:4:6(E,G,!ped-up!CECG,) | %104
!ped! (6:4:6(D,A,CFCA,)!ped-up!!ped! (6:4:6(F,CDADC)!ped-up! | %105
!ped! (6:4:6(G,,D,F,^B,F,D,) (6:4:6(G,,D,F,B,!ped-up!F,D,) | %106
!ped! (6:4:6(C,G,CECG,) (6:4:6(E,G,!ped-up!CECG,) | %107
!ped! (6:4:6(.F,CDADC)!ped-up!!ped! (6:4:6(.G,C^EBEC)!ped-up! | %108
!ped! (6:4:6(A,CFAFC)!ped-up!!ped! (6:4:6(.G,C^EBEC)!ped-up! | %109
!ped! (6:4:6(A,CFA!ped-up!FC)!ped! (6:4:6(^B,,F,G,D!ped-up!G,F,) | %110
!ped! (6:4:6(C,G,CE!ped-up!CG,)!ped! (6:4:6(D,G,^B,F!ped-up!B,G,) | %111
!ped! (6:4:6(E,G,CE!ped-up!CG,)!ped! (6:4:6(F,CDA!ped-up!DC) | %112
!ped! [G,CEG] z!ped-up! z2!ped! !arpeggio![^^F,CEA] x z2 | %113
 z8!ped-up!!ped!!ped-up!!ped!!ped-up!!ped! | %114
!ped! .[G,,,G,,] z[K:treble] .[Ee]2 .[Cc]2 .[G,G]2!ped-up! | %115
[K:bass] .[E,E]2 .[C,C]2 .[G,,G,]2 .[E,,E,]2 | %116
 .[C,,C,]2!ped-up!!ped! !>![G,,,G,,]2 !>![G,,,G,,]2!ped-up!!ped! !>![A,,,A,,]2 | %117
!ped! !>![G,,,G,,]2!ped-up!!ped! !>![^^F,,,^^F,,]2!ped-up!!ped! !^![G,,,G,,]4!ped-up! | %118
!ped! C,,4!ped-up!!ped! C,,4!ped-up! |!ped! C,,4!ped-up!!ped! C,,4!ped-up! | %120
!ped! C,,4!ped-up!!ped! C,,4!ped-up! |!ped! C,,4!ped-up!!p!!ped-up!!ped! C,,4!ped-up! | %122
!ped! C,,4 C,,4!ped-up! |!ped! C,,4 C,,4!ped-up! |!ped! C,,4!ped-up!!ped! C,,4!ped-up! | %125
!ped! C,,4 C,,4!ped-up! |"_sempre"!p!!ped! .C,,2 z2 z4!ped-up! | z8 | %128
"_il canto un poco marcato"!mp! (G,,8 | ^A,,2 G,,2 C,2 D,2) | ^E,8 | !>!G,8 | %132
!mp!"_dim." (F,4 ^E,4) | (D,4 ^E,2 C,2) |!p!!ped! G,,8-!ped-up! |!ped! [G,,,G,,]8!ped-up! | %136
!ppp!!ped! [C,,G,,]8!ped-up! |!ped! [C,,G,,C,]8!ped-up! |] %138
V:3
 !>!G,,8- | G,,8 | x8 | x8 | x8 | x8 | x8 | x8 | x8 | x8 | x8 | x8 | x8 | x8 | x8 | x8 | x8 | x8 | %18
 x8 | x8 | x8 | x8 | x8 | x8 | x8 | x8 | x8 | x8 | x8 | x8 | x8 | x8 | x8 | x8 | x8 | x8 | %36
 x2[K:treble] x6 |[K:bass] x8 | x8 | x8 ||[K:Db][M:4/4] x8 | x8 ||[M:4/4] x8 | %43
 (6:4:6(D,A,DFDA,) (6:4:6.D,(A,FAFA,) | (3GEA, (3FDA, (3ECA, (3DA,F, | x8 | x8 | %47
 (3E,GB, (3F,F=A, (3G,EB, (3_A,FC | x8 | (6:4:6(A,,E,A,CA,E,)!p!!>(! (6:4:6(A,,E,A,B,A,!>)!E,) | %50
 x8 | (6:4:6(D,A,DFDA,) (6:4:6.D,(A,FAFA,) | (3GEA, (3FDA, (3ECA, (3DA,F, | x8 | x8 | %55
 (3E,GB, (3F,F=A, (3G,EB, (3_A,FC | x8 | x8 | x8 | x8 | x8 | x8 | x8 | %63
 (6:4:6(D,A,DFDA,) (6:4:6.D,(A,FAFA,) | (3GEA, (3FDA, (3ECA, (3DA,F, | x8 | x8 | %67
 (3E,GB, (3F,F=A, (3G,EB, (3_A,FC | x8 | x8 | x8 | x8 | x8 | x8 | x8 | %75
 (6:4:6(D,A,DFDA,) (6:4:6.D,(A,FAFA,) | (3GEA, (3FDA, (3ECA, (3DA,F, | x8 | x8 | %79
 (3E,GB, (3F,F=A, (3G,EB, (3_A,FC | x8 | x8 ||[K:E] x8 | x8 | x8 | x8 | x8 | x8 | x8 | x8 | x8 | %91
 x8 | x8 | x8 | x8 | x8 | x8 | x8 | x8 | x8 | x8 | x8 | x8 | x8 | x8 | x8 | x8 | x8 | x8 | x8 | %110
 x8 | x8 | x8 | x8 | x2[K:treble] x6 |[K:bass] x8 | x8 | x8 | (C,,E,C,G,,) (C,,F,^B,,G,,) | %119
 (C,,E,C,G,,) (C,,F,^B,,G,,) | (C,,E,C,G,,) (C,,F,^B,,G,,) | (C,,E,C,G,,) (C,,F,^B,,G,,) | %122
 (C,,E,C,G,,) (C,,G,C,G,,) | (C,,E,C,G,,) (C,,G,C,G,,) | (C,,E,C,G,,) (C,,E,C,G,,) | %125
 (C,,E,C,G,,) (C,,E,C,G,,) | x8 | x8 | x8 | x8 | x8 | x8 | x8 | x8 | x8 | x8 | xxxx xx x2 | %137
 xxxx xx x2 |] %138
V:4
 x8 | x8 | x8 | x8 | (C,4 E,2) x2 | (C,4 E,2) x2 | D,4 F,4 | G,,8 | (C,4 E,2) x2 | (C,4 E,2) x2 | %10
 D,4 D,4 | G,,8 | x4 A,,4 | x8 | x8 | x8 | (A,,8 | B,,4 E,,4) | x4 A,,4 | !>!G,,6 !>!^B,2 | %20
 (A,,2 B,2 ^A,,2 ^A,2 | ^B,,2) A,4 x2 | (A,,2 B,2 ^A,,2 ^A,2 | B,,2) A,2 ^B,,2 G,2 | (C,4 E,4) | %25
 (C,4 E,2) x2 | D,4 F,4 | G,,8 | (C,4 E,2) x2 | x8 | A,4 x4 | x4 ^B,,2 x2 | (!>!C,4 !>!D,4) | %33
 (!>!E,4 !>!F,4) | x8 | x8 | x2[K:treble] x6 |[K:bass] x8 | x8 | x8 ||[K:Db][M:4/4] x8 | x8 || %42
[M:4/4] x8 | x8 | x8 | x8 | x8 | x8 | x8 | x8 | x2 C2 x4 | x8 | x8 | x8 | x8 | x8 | x8 | x8 | x8 | %59
 x8 | x8 | x8 | G,!<(! x3 x4 | x2!<)! x6 | x8 | x8 | x8 | x8 | x8 | x8 | x8 | x8 | x8 | x8 | %74
 G,!<(! x3 x4 | x4!<)! x4 | x8 | x8 | x8 | x8 | x8 | x8 ||[K:E] (C,4 E,2) x2 | (C,4 E,2) x2 | %84
 D,4 F,4 | G,,8 | (C,4 E,2) x2 | (C,4 E,2) x2 | D,4 D,4 | G,,8 | x4 A,,4 | x8 | x8 | x8 | (A,,8 | %95
 B,,4 E,,4) | x4 A,,4 | !>!G,,6 !>!^B,2 | (A,,2 B,2 ^A,,2 ^A,2 | ^B,,2) A,4 x2 | %100
 (A,,2 B,2 ^A,,2 ^A,2 | B,,2) A,2 ^B,,2 G,2 | (C,4 E,4) | (C,4 E,2) x2 | D,4 F,4 | G,,8 | %106
 (C,4 E,2) x2 | x8 | A,4 x4 | x4 ^B,,2 x2 | (!>!C,4 !>!D,4) | (!>!E,4 !>!F,4) | x8 | x8 | %114
 x2[K:treble] x6 |[K:bass] x8 | x8 | x8 | x8 | x8 | x8 | x8 | x8 | x8 | x8 | x8 | x8 | x8 | x8 | %129
 x8 | x8 | x8 | x8 | x8 | x8 | x8 | x8 | x8 |] %138
V:5
 x8 | x8 | x8 | x8 | x8 | x8 | x8 | x8 | x8 | x8 | x8 | x8 | !>!G2 !>!F2 !>!^E2 !>!F2 | %13
 !>!C2 !>!D2 !>!E2 !>!G2 | !>!G2 !>!F2 !>!^E2 !>!F2 | !>!^E2 !>!F2 !>!A2 !>!G2 | %16
 (G/g/^B/c/) (F/f/B/c/) (^E/^e/B/c/) (F/x/B/c/) | (C/c/F/A/) (D/d/F/A/) (E/e/G/B/) (G/x/B/e/) | %18
 (G/g/^B/c/) (F/f/B/c/)!f! (d/d'/f/a/) (c/x/f/a/) | %19
 (c/c'/d/f/) (^B/^b/d/f/) (B/b/d/f/) (B/x/d/f/) | %20
 ((!>!=c/=c'/d/f/ B/)b/d/f/ (!>!B/b/d/f/ ^A/)x/d/f/ | %21
 (!>!^A/^a/d/f/ =A/)=a/d/f/ c/a/d/f/ A/x/d/f/) | (=c/=c'/^d/f/ B/)b/d/f/ (B/b/d/f/ ^A/)^a/d/f/ | %23
 ^A/^a/d/f/ !>!=A/!>(!"^dim."=a/d/f/ A/a/d/f/ G/g/d/f/!>)! | x8 | x8 | x8 | x8 | x8 | x8 | x8 | %31
 x8 | x8 | x8 | x8 | x8 | x2!8va(! x6!8va)! | x8 | x8 | x8 ||[K:Db][M:4/4] x8 | x8 || %42
[M:4/4]x4(3x/4x/4x/4-x/ x x2 | x8 | x8 | x8 |x4(3x/4x/4x/4-x/ x x2 | x8 | x8 | x8 | %50
x4(3x/4x/4x/4-x/ x x2 | x8 | x8 | x8 |x4(3x/4x/4x/4-x/ x x2 | x8 | x8 | x8 | %58
 x4 (3x/4x/4x/4 x3/2 x2 | x8 | x2 x7/4 x/4 x3/2 x/ x2 | x8 |x4(3x/4x/4x/4-x/ x x2 | x8 | x8 | x8 | %66
x4(3x/4x/4x/4-x/ x x2 | x8 | x8 | x8 | x4 (3x/4x/4x/4 x3/2 x2 | x8 | x2 x7/4 x/4 x3/2 x/ x2 | x8 | %74
x4(3x/4x/4x/4-x/ x x2 | x8 | x8 | x8 |x4(3x/4x/4x/4-x/ x x2 | x8 | x8 | x8 ||[K:E] x8 | x8 | x8 | %85
 x8 | x8 | x8 | x8 | x8 | !>!G2 !>!F2 !>!^E2 !>!F2 | !>!C2 !>!D2 !>!E2 !>!G2 | %92
 !>!G2 !>!F2 !>!^E2 !>!F2 | !>!^E2 !>!F2 !>!A2 !>!G2 | %94
 (G/g/^B/c/) (F/f/B/c/) (^E/^e/B/c/) (F/x/B/c/) | (C/c/F/A/) (D/d/F/A/) (E/e/G/B/) (G/x/B/e/) | %96
 (G/g/^B/c/) (F/f/B/c/)!f! (d/d'/f/a/) (c/x/f/a/) | %97
 (!>!c/c'/d/f/) (^B/^b/d/"_dim."f/) (B/b/d/f/) (B/x/d/f/) | %98
 ((!>!=c/=c'/d/f/ B/)b/d/f/ (!>!B/b/d/f/ ^A/)x/d/f/ | %99
 (!>!^A/^a/d/f/ =A/)=a/d/f/ c/a/d/f/ A/x/d/f/) | (=c/=c'/^d/f/ B/)b/d/f/ (B/b/d/f/ ^A/)^a/d/f/ | %101
 ^A/^a/d/f/ !>!=A/!>(!"^dim."=a/d/f/ A/a/d/f/ G/g/d/f/!>)! | x8 | x8 | x8 | x8 | x8 | x8 | x8 | %109
 x8 | x8 | x8 | x8 | x8 | x2!8va(! x6!8va)! | x8 | x8 | x8 | %118
 x2 (A/!<(!G/e/E/) (A/G/e/E/) (A/G/d/D/)!<)! | %119
 (A/G/d/D/) (A/G/c/C/)!p! (E/D/G/G,/)!<(! (E/D/G/"_cresc."G,/) | %120
 (D/C/!<)!G/G,/)!ff! (A/!<(!G/e/E/) (A/G/e/E/) (A/G/d/D/)!<)! | %121
 (A/G/d/D/) (A/G/c/C/) (E/D/G/G,/) (E/"_cresc."D/G/G,/) | %122
 (D/C/G/G,/)!f! (A/!<(!G/e/E/) (F/E/c/C/) (A/G/e/E/)!<)! | %123
 (D/C/G/G,/) (A/G/e/E/) (F/E/c/C/) (A/G/e/E/) | (F/E/c/C/) x2 x4 | x2 x2 x4 | x8 | x8 | x8 | x8 | %130
 x8 | x8 | x8 | x8 | x8 | x8 | x8 | x8 |] %138
V:6
 x8 | x8 | x8 | x8 | x8 | x8 | x8 | x8 | x8 | x8 | x8 | x8 | x8 | x8 | x8 | x8 | x8 | x8 | x8 | %19
 x8 | =c2 B x B2 ^A x | ^A2 =A x x4 | x8 | x8 | x8 | x8 | x8 | x8 | x8 | x8 | x8 | x8 | x8 | x8 | %34
 x8 | x8 | x2!8va(! x6!8va)! | x8 | x8 | x8 ||[K:Db][M:4/4] x8 | x8 ||[M:4/4] x8 | x8 | x8 | x8 | %46
 x8 | x8 | x8 | x8 | x8 | x8 | x8 | x8 | x8 | x8 | x8 | x8 | x8 | x8 | x8 | x8 | x8 | x8 | x8 | %65
 x8 | x8 | x8 | x8 | x8 | x8 | x8 | x8 | x8 | x8 | x8 | x8 | x8 | x8 | x8 | x8 | x8 ||[K:E] x8 | %83
 x8 | x8 | x8 | x8 | x8 | x8 | x8 | x8 | x8 | x8 | x8 | x8 | x8 | x8 | x8 | =c2 B x B2 ^A x | %99
 ^A2 =A x x4 | x8 | x8 | x8 | x8 | x8 | x8 | x8 | x8 | x8 | x8 | x8 | x8 | x8 | x8 | %114
 x2!8va(! x6!8va)! | x8 | x8 | x8 | x8 | x8 | x8 | x8 | x8 | x8 | x8 | x8 | x8 | x8 | x8 | x8 | %130
 x8 | x8 | x8 | x8 | x8 | x8 | x8 | x8 |] %138

